svg/left_arrow.svg

<svg xmlns="http://www.w3.org/2000/svg" viewBox="0 0 32 32" enable-background="new 0 0 32 32"><path d="M 13.28125 6.78125 L 4.78125 15.28125 L 4.09375 16 L 4.78125 16.71875 L 13.28125 25.21875 L 14.71875 23.78125 L 7.9375 17 L 28 17 L 28 15 L 7.9375 15 L 14.71875 8.21875 L 13.28125 6.78125 z" color="#000" overflow="visible" enable-background="accumulate"/></svg>

<svg xmlns="http://www.w3.org/2000/svg" viewBox="0 0 32 32"><path d="M13.28 6.78l-8.5 8.5-.686.72.687.72 8.5 8.5 1.44-1.44L7.936 17H28v-2H7.937l6.782-6.78-1.44-1.44z"/></svg>
